icon-themes/breeze_svg/cmd/32/mirror.svg

<?xml version="1.0" encoding="UTF-8" standalone="no"?>
<!-- Created with Inkscape (http://www.inkscape.org/) -->

<svg
   xmlns:dc="http://purl.org/dc/elements/1.1/"
   xmlns:cc="http://creativecommons.org/ns#"
   xmlns:rdf="http://www.w3.org/1999/02/22-rdf-syntax-ns#"
   xmlns:svg="http://www.w3.org/2000/svg"
   xmlns="http://www.w3.org/2000/svg"
   xmlns:sodipodi="http://sodipodi.sourceforge.net/DTD/sodipodi-0.dtd"
   xmlns:inkscape="http://www.inkscape.org/namespaces/inkscape"
   width="32"
   height="32"
   id="svg5453"
   version="1.1"
   inkscape:version="0.91 r13725"
   sodipodi:docname="mirror.svg"
   viewBox="0 0 32 32">
  <defs
     id="defs5455" />
  <sodipodi:namedview
     id="base"
     pagecolor="#ffffff"
     bordercolor="#666666"
     borderopacity="1.0"
     inkscape:pageopacity="0"
     inkscape:pageshadow="2"
     inkscape:zoom="18.708353"
     inkscape:cx="19.49588"
     inkscape:cy="11.300065"
     inkscape:document-units="px"
     inkscape:current-layer="layer1"
     showgrid="true"
     fit-margin-top="0"
     fit-margin-left="0"
     fit-margin-right="0"
     fit-margin-bottom="0"
     inkscape:window-width="1883"
     inkscape:window-height="1051"
     inkscape:window-x="33"
     inkscape:window-y="0"
     inkscape:window-maximized="0"
     inkscape:showpageshadow="false"
     borderlayer="true"
     showguides="true"
     inkscape:guide-bbox="true"
     inkscape:object-nodes="true"
     inkscape:snap-bbox="true"
     inkscape:snap-global="true">
    <inkscape:grid
       type="xygrid"
       id="grid4063" />
    <sodipodi:guide
       position="4,24"
       orientation="28,0"
       id="guide4280" />
    <sodipodi:guide
       position="13,4"
       orientation="0,28"
       id="guide4282" />
    <sodipodi:guide
       position="28,25"
       orientation="-28,0"
       id="guide4284" />
    <sodipodi:guide
       position="15,28"
       orientation="0,-28"
       id="guide4286" />
  </sodipodi:namedview>
  <metadata
     id="metadata5458">
    <rdf:RDF>
      <cc:Work
         rdf:about="">
        <dc:format>image/svg+xml</dc:format>
        <dc:type
           rdf:resource="http://purl.org/dc/dcmitype/StillImage" />
        <dc:title></dc:title>
      </cc:Work>
    </rdf:RDF>
  </metadata>
  <g
     inkscape:label="Capa 1"
     inkscape:groupmode="layer"
     id="layer1"
     transform="translate(-384.57143,-515.798)">
    <path
       style="color:#000000;clip-rule:nonzero;display:inline;overflow:visible;visibility:visible;opacity:1;isolation:auto;mix-blend-mode:normal;color-interpolation:sRGB;color-interpolation-filters:linearRGB;solid-color:#000000;solid-opacity:1;fill:#4d4d4d;fill-opacity:1;fill-rule:evenodd;stroke:none;stroke-width:2;stroke-linecap:square;stroke-linejoin:miter;stroke-miterlimit:4;stroke-dasharray:none;stroke-dashoffset:0;stroke-opacity:0.4848485;color-rendering:auto;image-rendering:auto;shape-rendering:auto;text-rendering:auto;enable-background:accumulate"
       d="m 9,4 0,2 1,0 0,-2 z m 13,0 0,2 1,0 0,-2 z M 9,7 9,9 5,9 l 0,14 4,0 0,2 1,0 0,-2 4,0 0,-4 4,0 0,4 4,0 0,2 1,0 0,-2 4,0 0,-14 -4,0 0,-2 -1,0 0,2 -4,0 0,4 -4,0 0,-4 -4,0 0,-2 z m -3,3 7,0 0,3 0,1 0,4 0,1 0,3 -7,0 z m 13,0 7,0 0,12 -7,0 z m 1,1 0,10 5,0 0,-10 z m -6,3 4,0 0,4 -4,0 z m -5,12 0,2 1,0 0,-2 z m 13,0 0,2 1,0 0,-2 z"
       transform="translate(384.57143,515.798)"
       id="rect4414"
       inkscape:connector-curvature="0"
       sodipodi:nodetypes="ccccccccccccccccccccccccccccccccccccccccccccccccccccccccccccccccccccccccc" />
  </g>
</svg>

<svg xmlns="http://www.w3.org/2000/svg" viewBox="0 0 32 32">
 <path 
     style="fill:#4d4d4d" 
     d="M 9 4 L 9 6 L 10 6 L 10 4 L 9 4 z M 22 4 L 22 6 L 23 6 L 23 4 L 22 4 z M 9 7 L 9 9 L 5 9 L 5 23 L 9 23 L 9 25 L 10 25 L 10 23 L 14 23 L 14 19 L 18 19 L 18 23 L 22 23 L 22 25 L 23 25 L 23 23 L 27 23 L 27 9 L 23 9 L 23 7 L 22 7 L 22 9 L 18 9 L 18 13 L 14 13 L 14 9 L 10 9 L 10 7 L 9 7 z M 6 10 L 13 10 L 13 13 L 13 14 L 13 18 L 13 19 L 13 22 L 6 22 L 6 10 z M 19 10 L 26 10 L 26 22 L 19 22 L 19 10 z M 20 11 L 20 21 L 25 21 L 25 11 L 20 11 z M 14 14 L 18 14 L 18 18 L 14 18 L 14 14 z M 9 26 L 9 28 L 10 28 L 10 26 L 9 26 z M 22 26 L 22 28 L 23 28 L 23 26 L 22 26 z "
     />
</svg>
